assets/images/icon-twitter.svg

<svg width="32" height="32" viewBox="0 0 32 32" fill="none" xmlns="http://www.w3.org/2000/svg">
<g clip-path="url(#clip0_218_868)">
<path d="M16 32C24.8366 32 32 24.8366 32 16C32 7.16344 24.8366 0 16 0C7.16344 0 0 7.16344 0 16C0 24.8366 7.16344 32 16 32Z" fill="#1B9DF0"/>
<path d="M13.072 24.4402C20.168 24.4402 24.048 18.5602 24.048 13.4642C24.048 13.2962 24.048 13.1282 24.04 12.9682C24.792 12.4242 25.448 11.7442 25.968 10.9682C25.28 11.2722 24.536 11.4802 23.752 11.5762C24.552 11.0962 25.16 10.3442 25.448 9.44016C24.704 9.88016 23.88 10.2002 23 10.3762C22.296 9.62416 21.296 9.16016 20.184 9.16016C18.056 9.16016 16.328 10.8882 16.328 13.0162C16.328 13.3202 16.36 13.6162 16.432 13.8962C13.224 13.7362 10.384 12.2002 8.48003 9.86416C8.15203 10.4322 7.96003 11.0962 7.96003 11.8002C7.96003 13.1362 8.64003 14.3202 9.68003 15.0082C9.04803 14.9922 8.45603 14.8162 7.93603 14.5282C7.93603 14.5442 7.93603 14.5602 7.93603 14.5762C7.93603 16.4482 9.26402 18.0002 11.032 18.3602C10.712 18.4482 10.368 18.4962 10.016 18.4962C9.76803 18.4962 9.52803 18.4722 9.28803 18.4242C9.77603 19.9602 11.2 21.0722 12.888 21.1042C11.568 22.1362 9.90403 22.7522 8.09603 22.7522C7.78403 22.7522 7.48003 22.7362 7.17603 22.6962C8.86403 23.8002 10.896 24.4402 13.072 24.4402Z" fill="white"/>
</g>
<defs>
<clipPath id="clip0_218_868">
<rect width="32" height="32" fill="white"/>
</clipPath>
</defs>
</svg>

<svg xmlns="http://www.w3.org/2000/svg" width="32" height="32" fill="none" viewBox="0 0 32 32"><g clip-path="url(#a)"><path fill="#1b9df0" d="M16 32c8.837 0 16-7.163 16-16S24.837 0 16 0 0 7.163 0 16s7.163 16 16 16"/><path fill="#fff" d="M13.072 24.44c7.096 0 10.976-5.88 10.976-10.976 0-.168 0-.336-.008-.496a7.9 7.9 0 0 0 1.928-2 7.8 7.8 0 0 1-2.216.608 3.86 3.86 0 0 0 1.696-2.136c-.744.44-1.568.76-2.448.936a3.84 3.84 0 0 0-2.816-1.216 3.86 3.86 0 0 0-3.856 3.856q-.002.458.104.88A10.94 10.94 0 0 1 8.48 9.864a3.87 3.87 0 0 0-.52 1.936c0 1.336.68 2.52 1.72 3.208a3.8 3.8 0 0 1-1.744-.48v.048a3.86 3.86 0 0 0 3.096 3.784 3.85 3.85 0 0 1-1.744.064 3.85 3.85 0 0 0 3.6 2.68 7.75 7.75 0 0 1-5.712 1.592 10.75 10.75 0 0 0 5.896 1.744"/></g><defs><clipPath id="a"><path fill="#fff" d="M0 0h32v32H0z"/></clipPath></defs></svg>
